X:1
T:Dance With My Father
T:Dance With My Father
T:Luther Vandross
C:Luther Vandross
Z:All Rights Reserved
L:1/8
M:4/4
K:G
V:1 treble 
%%MIDI program 40
%%MIDI control 7 100
%%MIDI control 10 64
V:1
"G" bc'd'd'- d'c'ba- |"D7" a4 z4 |"Em" gabb- b g2 e- |"C" e4 z4 |:"G" z2 DD DBGA |"D7" A4 z3 G/F/ | %6
w: ||||Back when I was a child||
w: ||||When I and My Mo- ther|would Dis- a-|
"C" G2 z G GGGG- |"D7" GGGF- FE D2 |"G" z3 D DBGA- |"D7" A A2 B- B A3 |"C" z3 G GGGG- | %11
w: * Be- fore life re- moved|* all the in- * no- cence|My fa- ther would lift|* me high, * *|And dance with my mo-|
w: gree, To get my way I|would run from her * to him.|He'd make me laugh just|to com- fort * me,|Then finally make me do|
"D7" GGGF- FE D2 |"G" z BBB dddG |"C" G2 GA-"D7" A2 z2 |"Cm" z ccc"G" BAGG- | GA B2 z2 GA | %16
w: * ther and me * and then|Spin me a- round til I fell|* a- sleep. *|Then up the stairs he would car-|* ry me, And I|
w: * just what my ma- ma said.|Lat- er that night when I was|* a- sleep *|He left a dol- lar un- der|* ny sheet. Ne- ver|
"Am" BA A2 z GGA- |"D7" A4 z3 D |"G" B B2 d- d2 z G |"D7" A A2 B-"Bm" B2 z F |"Em" G G2 B- B2 z G | %21
w: knew for sure I was loved,|* If|I could get * a-|no- ther chance * A-|no- ther walk, * A-|
w: dreamed that he'd be gone from|me. If|I could steal * one|fi- nal glance * One|fi- nal step, * One|
"C" G G2 G- GFED- |"Am" Dccc cBAG- |"Em" G2 G/A/B- BGAc- |"Am" c B2 G-"Em" G2 z D | %25
w: no- ther dance * with him *|* I'd play a song that would ne-|ver e- ver end * How I'd love,|* love, love * To|
w: fi- nal dance * with Him *|* I'd play a song that would ne-|ver, e- ver end * Cause I'd love,|* love, love, * To|
"D7" c c2 c B A2 G |1"G" bc'd'd'- d'c'ba- ||"D7" a4 z4 |"Em" gabb- b g2 e- |"C" e4 z4 :|2"G" G8 || %31
w: dance with my fa- ther a-|gain. * * * * * * *||||gain.|
w: dance with my fa- ther a-||||||
"Am" z ccc cdee- |"D7" e d2 A- A2 z G/A/ |"G" BBBB dddG- |"Em" G2 GA-"D7" A2"Em" B2 | %35
w: Some- times I'd list- en out- side|* her door * And I'd|hear how ma- ma would cry for him||
w: ||||
"Am" z ccc cdee- |"D7" ed d2- d4 |"Am" z ccc cdee- |"D7" e d2 d- d4 | z8 |"G" bc'd'd'- d'c'ba- | %41
w: I'd pray for her e- ven more|* than me *|I'd pray for her e- ven more|* than me. *|||
w: ||||||
"D7" a4 z4 |"Em" gabb- b g2 e- |"C" e4 z3 d ||"D" f f2 a a2 z e |"A7" e e2 f- f2 z ^c | %46
w: ||* I|know I'm pray- ing for|much too much * but|
w: |||||
"Bm" d d2 f f2 z d |"G" d d2 d- d^cBA- |"Em" Aggg gfed- |"Bm" d2 d/e/f- fdeg- | g f2 d"Em" d2 z A | %51
w: could you send her the|on- ly man * she loved *|* I know you don- t do it-|* us- ual- ly * But Dear Lord|* she's dy- ing To|
w: |||||
"A7" g g2 g f e2 d- |"Bm" d d3- d4- |"G" d8 |"A7" eeef eddA |"G" eeef ed d2 |"D" fgaa- agfe- | %57
w: dance with my fa- ther a-|* gain. *||Ev 'ry night I fall a- sleep, and|this is all I e- ver dream.-||
w: ||||||
"A7" e4 z4 |"Bm" deff- f d2 B- |"G" B4 z4 |"D" d4 z4 |] %61
w: ||||
w: ||||

